X:25
T:Carraroe, The
M:6/8
L:1/8
Q:120
R:Jig (Key of D)
K:Dmaj
"D"DED F2A | dfe d2A | "G"BAF Adf | "A"afd ~e3 |
"D"DED F2A | dfe d2A | "G"~d2B AFA | "A"dAF ~E3 :|:
"D"dfa afa | "A"bge ~e3 | "D"dfa afa | "A"bge ~e3 |
"D"dfa afa | "A"bge eBc | "G"d2B AFA | "A"dAF ~E3 :|]
